icons/menu-fold-fill.svg

<svg viewBox="0 0 24 24" fill="currentColor" xmlns="http://www.w3.org/2000/svg">
    <path d="M21 17.9996V19.9996H3V17.9996H21ZM7 3.5V13.5L2 8.49955L7 3.5ZM21 10.9996V12.9996H12V10.9996H21ZM21 3.99955V5.99955H12V3.99955H21Z"/>
</svg>

<svg xmlns="http://www.w3.org/2000/svg" viewBox="0 0 24 24">
    <g>
        <path fill="none" d="M0 0H24V24H0z"/>
        <path d="M21 18v2H3v-2h18zM6.95 3.55v9.9L2 8.5l4.95-4.95zM21 11v2h-9v-2h9zm0-7v2h-9V4h9z"/>
    </g>
</svg>
